X:97
T:Tripping on the Mountain
R:polka
D:John McKenna & James Morrison 1928 (Columbia)
Z:id:hn-polka-96
M:2/4
L:1/8
K:D
f/e/|:dA FA|d>c d/e/f/e/|dA FA|Be ef/e/|
dA FA|dg f>e|d/B/A/F/ A/B/d/e/|1 fd df/e/:|2 fd df/g/||
|:af ge|fd df/g/|af g/f/g/a/|be ef/g/|
af ge|fd f>e|d/B/A/F/ A/B/d/e/|1 fd df/g/:|2 fd d||
<end>
<start>
